X: 26272
T: Melancholy Martin
R: slip jig
M: 9/8
K: Gmajor
|:D|G2G ABG FED|G2G A2A d2D|G2G ABG FED|E2E F2D G2:|
|:D|GFE DCB, CDE|G2D F2G A2A|G2G ABG FED|E2E F2D G2:|

